optimized/24/outline/department.svg

<svg viewBox="0 0 24 24" xmlns="http://www.w3.org/2000/svg" fill="currentColor" data-slot="icon">
  <g clip-path="url(#clip0_2208_12339)">
    <path d="M10 3C8.89543 3 8 3.89543 8 5V9C8 10.1046 8.89543 11 10 11H11.25V12.25H7C5.48122 12.25 4.25 13.4812 4.25 15H4C2.89543 15 2 15.8954 2 17V19C2 20.1046 2.89543 21 4 21H6C7.10457 21 8 20.1046 8 19V17C8 15.8954 7.10457 15 6 15H5.75C5.75 14.3096 6.30964 13.75 7 13.75H11.25V15H11C9.89543 15 9 15.8954 9 17V19C9 20.1046 9.89543 21 11 21H13C14.1046 21 15 20.1046 15 19V17C15 15.8954 14.1046 15 13 15H12.75V13.75H17C17.6904 13.75 18.25 14.3096 18.25 15H18C16.8954 15 16 15.8954 16 17V19C16 20.1046 16.8954 21 18 21H20C21.1046 21 22 20.1046 22 19V17C22 15.8954 21.1046 15 20 15H19.75C19.75 13.4812 18.5188 12.25 17 12.25H12.75V11H14C15.1046 11 16 10.1046 16 9V5C16 3.89543 15.1046 3 14 3H10ZM14 4.5C14.2761 4.5 14.5 4.72386 14.5 5V9C14.5 9.27614 14.2761 9.5 14 9.5H10C9.72386 9.5 9.5 9.27614 9.5 9V5C9.5 4.72386 9.72386 4.5 10 4.5H14ZM4 16.5H6C6.27614 16.5 6.5 16.7239 6.5 17V19C6.5 19.2761 6.27614 19.5 6 19.5H4C3.72386 19.5 3.5 19.2761 3.5 19V17C3.5 16.7239 3.72386 16.5 4 16.5ZM11 16.5H13C13.2761 16.5 13.5 16.7239 13.5 17V19C13.5 19.2761 13.2761 19.5 13 19.5H11C10.7239 19.5 10.5 19.2761 10.5 19V17C10.5 16.7239 10.7239 16.5 11 16.5ZM18 16.5H20C20.2761 16.5 20.5 16.7239 20.5 17V19C20.5 19.2761 20.2761 19.5 20 19.5H18C17.7239 19.5 17.5 19.2761 17.5 19V17C17.5 16.7239 17.7239 16.5 18 16.5Z"/>
  </g>
  <defs>
    <clipPath id="clip0_2208_12339">
      <rect width="24" height="24"/>
    </clipPath>
  </defs>
</svg>

<svg xmlns="http://www.w3.org/2000/svg" viewBox="0 0 24 24" fill="currentColor" data-slot="icon">
  <g clip-path="url(#a)">
    <path d="M10 3a2 2 0 0 0-2 2v4a2 2 0 0 0 2 2h1.25v1.25H7A2.75 2.75 0 0 0 4.25 15H4a2 2 0 0 0-2 2v2a2 2 0 0 0 2 2h2a2 2 0 0 0 2-2v-2a2 2 0 0 0-2-2h-.25c0-.69.56-1.25 1.25-1.25h4.25V15H11a2 2 0 0 0-2 2v2a2 2 0 0 0 2 2h2a2 2 0 0 0 2-2v-2a2 2 0 0 0-2-2h-.25v-1.25H17c.69 0 1.25.56 1.25 1.25H18a2 2 0 0 0-2 2v2a2 2 0 0 0 2 2h2a2 2 0 0 0 2-2v-2a2 2 0 0 0-2-2h-.25A2.75 2.75 0 0 0 17 12.25h-4.25V11H14a2 2 0 0 0 2-2V5a2 2 0 0 0-2-2h-4Zm4 1.5a.5.5 0 0 1 .5.5v4a.5.5 0 0 1-.5.5h-4a.5.5 0 0 1-.5-.5V5a.5.5 0 0 1 .5-.5h4Zm-10 12h2a.5.5 0 0 1 .5.5v2a.5.5 0 0 1-.5.5H4a.5.5 0 0 1-.5-.5v-2a.5.5 0 0 1 .5-.5Zm7 0h2a.5.5 0 0 1 .5.5v2a.5.5 0 0 1-.5.5h-2a.5.5 0 0 1-.5-.5v-2a.5.5 0 0 1 .5-.5Zm7 0h2a.5.5 0 0 1 .5.5v2a.5.5 0 0 1-.5.5h-2a.5.5 0 0 1-.5-.5v-2a.5.5 0 0 1 .5-.5Z"/>
  </g>
  <defs>
    <clipPath id="a">
      <rect width="24" height="24"/>
    </clipPath>
  </defs>
</svg>
